; generated by PrusaSlicer 2.0.0+linux64 on 2019-07-19 at 00:02:02

; 

; external perimeters extrusion width = 0.45mm
; perimeters extrusion width = 0.45mm
; infill extrusion width = 0.56mm
; solid infill extrusion width = 0.45mm
; top infill extrusion width = 0.40mm
; first layer extrusion width = 0.30mm

M107
M190 S50 ; set bed temperature and wait for it to be reached
M104 S215 ; set temperature
G28; home all axes
G1 Z5 F5000 ; lift nozzle
; Filament gcode
M109 S215 ; set temperature and wait for it to be reached
G21 ; set units to millimeters
G90 ; use absolute coordinates
M82 ; use absolute distances for extrusion
G92 E0
G1 Z0.150 F7800.000
G1 E-2.00000 F1800.00000
G92 E0
G1 Z0.450 F7800.000
G1 X76.264 Y75.762
G1 Z0.150
G1 E2.00000 F1800.00000
G1 F1080
G1 X78.465 Y73.787 E2.04692
G1 X79.592 Y72.901 E2.06967
G1 X81.724 Y71.419 E2.11087
G1 X84.283 Y69.935 E2.15779
G1 X86.961 Y68.682 E2.20471
G1 X88.295 Y68.159 E2.22745
G1 X90.760 Y67.359 E2.26856
G1 X93.643 Y66.676 E2.31557
G1 X96.570 Y66.250 E2.36250
G1 X97.998 Y66.135 E2.38523
G1 X100.588 Y66.081 E2.42634
G1 X103.546 Y66.261 E2.47336
G1 X106.471 Y66.699 E2.52028
G1 X107.872 Y67.002 E2.54302
G1 X110.373 Y67.700 E2.58422
G1 X113.146 Y68.726 E2.63114
G1 X115.820 Y69.990 E2.67806
G1 X118.030 Y71.265 E2.71853
G1 X119.265 Y72.077 E2.74200
G1 X121.625 Y73.860 E2.78893
G1 X123.827 Y75.852 E2.83604
G1 X125.596 Y77.736 E2.87704
G1 X126.514 Y78.837 E2.89979
G1 X128.257 Y81.226 E2.94670
G1 X129.784 Y83.759 E2.99363
G1 X130.939 Y86.085 E3.03483
G1 X131.504 Y87.415 E3.05776
G1 X132.508 Y90.300 E3.10623
G1 X132.890 Y91.688 E3.12907
G1 X133.427 Y94.216 E3.17007
G1 X133.806 Y97.161 E3.21719
G1 X133.924 Y100.116 E3.26412
G1 X133.886 Y101.595 E3.28758
G1 X133.671 Y104.137 E3.32805
G1 X133.184 Y107.054 E3.37498
G1 X132.443 Y109.917 E3.42190
G1 X131.994 Y111.278 E3.44464
G1 X131.039 Y113.692 E3.48583
G1 X129.729 Y116.344 E3.53276
G1 X128.192 Y118.870 E3.57968
G1 X127.369 Y120.044 E3.60242
G1 X125.757 Y122.078 E3.64361
G1 X123.728 Y124.247 E3.69073
G1 X121.530 Y126.217 E3.73755
G1 X119.466 Y127.783 E3.77867
G1 X118.276 Y128.581 E3.80140
G1 X115.718 Y130.065 E3.84832
G1 X113.027 Y131.323 E3.89544
G1 X110.606 Y132.224 E3.93644
G1 X109.234 Y132.643 E3.95919
G1 X106.345 Y133.327 E4.00630
G1 X103.379 Y133.755 E4.05384
G1 X100.826 Y133.914 E4.09443
G1 X99.302 Y133.918 E4.11862
G1 X96.338 Y133.726 E4.16574
G1 X94.879 Y133.535 E4.18909
G1 X92.367 Y133.054 E4.22967
G1 X89.516 Y132.265 E4.27660
G1 X86.747 Y131.228 E4.32351
G1 X84.397 Y130.123 E4.36471
G1 X83.138 Y129.437 E4.38746
G1 X80.638 Y127.858 E4.43438
G1 X78.286 Y126.065 E4.48130
G1 X76.357 Y124.328 E4.52249
G1 X75.350 Y123.307 E4.54524
G1 X73.413 Y121.072 E4.59217
G1 X71.680 Y118.677 E4.63908
G1 X70.357 Y116.495 E4.67955
G1 X69.665 Y115.188 E4.70302
G1 X68.457 Y112.488 E4.74995
G1 X67.489 Y109.688 E4.79696
G1 X66.844 Y107.178 E4.83807
G1 X66.570 Y105.772 E4.86080
G1 X66.194 Y102.839 E4.90773
G1 X66.076 Y99.884 E4.95465
G1 X66.111 Y98.451 E4.97739
G1 X66.329 Y95.863 E5.01859
G1 X66.816 Y92.946 E5.06551
G1 X67.557 Y90.084 E5.11243
G1 X68.006 Y88.722 E5.13518
G1 X68.961 Y86.308 E5.17636
G1 X70.271 Y83.656 E5.22329
G1 X71.808 Y81.130 E5.27021
G1 X72.631 Y79.956 E5.29296
G1 X74.243 Y77.922 E5.33415
G1 X76.223 Y75.805 E5.38012
G1 E3.38012 F1800.00000
G92 E0
G1 Z0.450 F7800.000
G1 X121.971 Y111.638
G1 Z0.150
G1 E2.00000 F1800.00000
G1 F1080
G1 X119.329 Y111.638 E2.04191
G1 X118.008 Y109.350 E2.08383
G1 X119.329 Y107.062 E2.12574
G1 X121.971 Y107.062 E2.16765
G1 X123.292 Y109.350 E2.20957
G1 X122.001 Y111.586 E2.25053
G1 X121.816 Y111.370 F7800.000
G1 F1080
G1 X119.484 Y111.370 E2.28754
G1 X118.318 Y109.350 E2.32454
G1 X119.484 Y107.330 E2.36155
G1 X121.816 Y107.330 E2.39856
G1 X122.982 Y109.350 E2.43556
G1 X121.846 Y111.318 E2.47162
G1 X121.662 Y111.102 F7800.000
G1 F1080
G1 X119.638 Y111.102 E2.50372
G1 X118.627 Y109.350 E2.53582
G1 X119.638 Y107.598 E2.56792
G1 X121.662 Y107.598 E2.60002
G1 X122.673 Y109.350 E2.63212
G1 X121.692 Y111.050 E2.66327
G1 X121.662 Y111.502 F7800.000
G1 E0.66327 F1800.00000
G92 E0
G1 Z0.450 F7800.000
G1 X109.801 Y82.048
G1 Z0.150
G1 E2.00000 F1800.00000
G1 F1080
G1 X107.159 Y82.048 E2.04191
G1 X105.838 Y79.760 E2.08383
G1 X107.159 Y77.472 E2.12574
G1 X109.801 Y77.472 E2.16765
G1 X111.122 Y79.760 E2.20957
G1 X109.831 Y81.996 E2.25053
G1 X109.646 Y81.780 F7800.000
G1 F1080
G1 X107.314 Y81.780 E2.28753
G1 X106.148 Y79.760 E2.32454
G1 X107.314 Y77.740 E2.36155
G1 X109.646 Y77.740 E2.39856
G1 X110.812 Y79.760 E2.43556
G1 X109.676 Y81.728 E2.47162
G1 X109.492 Y81.512 F7800.000
G1 F1080
G1 X107.468 Y81.512 E2.50372
G1 X106.457 Y79.760 E2.53582
G1 X107.468 Y78.008 E2.56792
G1 X109.492 Y78.008 E2.60002
G1 X110.503 Y79.760 E2.63212
G1 X109.522 Y81.460 E2.66327
G1 X109.492 Y81.912 F7800.000
G1 E0.66327 F1800.00000
G92 E0
G1 Z0.450 F7800.000
G1 X94.162 Y79.760
G1 Z0.150
G1 E2.00000 F1800.00000
G1 F1080
G1 X92.841 Y82.048 E2.04191
G1 X90.199 Y82.048 E2.08383
G1 X88.878 Y79.760 E2.12574
G1 X90.199 Y77.472 E2.16765
G1 X92.841 Y77.472 E2.20957
G1 X94.132 Y79.708 E2.25053
G1 X93.852 Y79.760 F7800.000
G1 F1080
G1 X92.686 Y81.780 E2.28753
G1 X90.354 Y81.780 E2.32454
G1 X89.188 Y79.760 E2.36155
G1 X90.354 Y77.740 E2.39855
G1 X92.686 Y77.740 E2.43556
G1 X93.822 Y79.708 E2.47162
G1 X93.543 Y79.760 F7800.000
G1 F1080
G1 X92.532 Y81.512 E2.50372
G1 X90.508 Y81.512 E2.53582
G1 X89.497 Y79.760 E2.56792
G1 X90.508 Y78.008 E2.60002
G1 X92.532 Y78.008 E2.63212
G1 X93.513 Y79.708 E2.66327
G1 X93.890 Y79.960 F7800.000
G1 E0.66327 F1800.00000
G92 E0
G1 Z0.450 F7800.000
G1 X80.671 Y107.062
G1 Z0.150
G1 E2.00000 F1800.00000
G1 F1080
G1 X81.992 Y109.350 E2.04191
G1 X80.671 Y111.638 E2.08383
G1 X78.029 Y111.638 E2.12574
G1 X76.708 Y109.350 E2.16765
G1 X78.029 Y107.062 E2.20957
G1 X80.611 Y107.062 E2.25053
G1 X80.516 Y107.330 F7800.000
G1 F1080
G1 X81.682 Y109.350 E2.28754
G1 X80.516 Y111.370 E2.32454
G1 X78.184 Y111.370 E2.36155
G1 X77.018 Y109.350 E2.39856
G1 X78.184 Y107.330 E2.43556
G1 X80.456 Y107.330 E2.47162
G1 X80.362 Y107.598 F7800.000
G1 F1080
G1 X81.373 Y109.350 E2.50372
G1 X80.362 Y111.102 E2.53582
G1 X78.338 Y111.102 E2.56792
G1 X77.327 Y109.350 E2.60002
G1 X78.338 Y107.598 E2.63212
G1 X80.302 Y107.598 E2.66327
G1 X80.708 Y107.398 F7800.000
G1 E0.66327 F1800.00000
G92 E0
G1 Z0.450 F7800.000
G1 X74.696 Y109.705
G1 Z0.150
G1 E2.00000 F1800.00000
G1 F1080
G1 X74.402 Y108.914 E2.01339
G1 X74.051 Y107.834 E2.03140
G1 X73.746 Y106.741 E2.04942
G1 X73.487 Y105.636 E2.06743
G1 X73.274 Y104.520 E2.08544
G1 X73.108 Y103.397 E2.10346
G1 X72.990 Y102.268 E2.12147
G1 X72.918 Y101.135 E2.13948
G1 X72.895 Y100.000 E2.15750
G1 X72.918 Y98.865 E2.17551
G1 X72.990 Y97.732 E2.19352
G1 X73.108 Y96.603 E2.21154
G1 X73.274 Y95.480 E2.22955
G1 X73.487 Y94.364 E2.24756
G1 X73.746 Y93.259 E2.26557
G1 X74.051 Y92.166 E2.28359
G1 X74.402 Y91.086 E2.30160
G1 X74.798 Y90.022 E2.31961
G1 X75.238 Y88.975 E2.33763
G1 X75.721 Y87.948 E2.35564
G1 X76.247 Y86.942 E2.37365
G1 X76.815 Y85.959 E2.39167
G1 X77.423 Y85.000 E2.40968
G1 X78.071 Y84.068 E2.42769
G1 X78.758 Y83.164 E2.44571
G1 X79.481 Y82.289 E2.46372
G1 X80.241 Y81.445 E2.48173
G1 X81.035 Y80.634 E2.49975
G1 X81.863 Y79.857 E2.51776
G1 X82.722 Y79.115 E2.53577
G1 X83.612 Y78.410 E2.55378
G1 X84.530 Y77.743 E2.57179
G1 X85.515 Y77.091 E2.59053
G1 X86.447 Y76.526 E2.60782
G1 X87.442 Y75.979 E2.62584
G1 X88.459 Y75.474 E2.64385
G1 X89.496 Y75.012 E2.66186
G1 X90.552 Y74.595 E2.67988
G1 X91.624 Y74.221 E2.69789
G1 X92.711 Y73.893 E2.71590
G1 X93.810 Y73.611 E2.73392
G1 X94.921 Y73.375 E2.75193
G1 X96.040 Y73.185 E2.76994
G1 X97.167 Y73.043 E2.78796
G1 X98.298 Y72.948 E2.80597
G1 X99.432 Y72.900 E2.82398
G1 X100.568 Y72.900 E2.84199
G1 X101.657 Y72.946 E2.85929
G1 X102.834 Y73.043 E2.87803
G1 X103.960 Y73.185 E2.89603
G1 X105.079 Y73.375 E2.91405
G1 X106.190 Y73.611 E2.93206
G1 X107.289 Y73.893 E2.95007
G1 X108.376 Y74.221 E2.96809
G1 X109.448 Y74.595 E2.98610
G1 X110.504 Y75.012 E3.00411
G1 X111.541 Y75.474 E3.02213
G1 X112.558 Y75.979 E3.04014
G1 X113.553 Y76.526 E3.05815
G1 X114.524 Y77.114 E3.07617
G1 X115.469 Y77.742 E3.09418
G1 X116.388 Y78.410 E3.11219
G1 X117.278 Y79.115 E3.13020
G1 X118.137 Y79.857 E3.14822
G1 X118.965 Y80.634 E3.16623
G1 X119.759 Y81.445 E3.18424
G1 X120.519 Y82.289 E3.20226
G1 X121.242 Y83.164 E3.22027
G1 X121.929 Y84.068 E3.23828
G1 X122.577 Y85.000 E3.25630
G1 X123.185 Y85.959 E3.27431
G1 X123.752 Y86.941 E3.29231
G1 X124.298 Y87.989 E3.31105
G1 X124.762 Y88.975 E3.32835
G1 X125.202 Y90.022 E3.34636
G1 X125.598 Y91.086 E3.36437
G1 X125.949 Y92.166 E3.38239
G1 X126.254 Y93.259 E3.40040
G1 X126.513 Y94.364 E3.41841
G1 X126.726 Y95.480 E3.43643
G1 X126.892 Y96.603 E3.45444
G1 X127.010 Y97.732 E3.47245
G1 X127.079 Y98.820 E3.48975
G1 X127.105 Y100.001 E3.50849
G1 X127.082 Y101.135 E3.52649
G1 X127.010 Y102.268 E3.54450
G1 X126.892 Y103.397 E3.56252
G1 X126.726 Y104.520 E3.58053
G1 X126.513 Y105.636 E3.59854
G1 X126.254 Y106.741 E3.61656
G1 X125.949 Y107.834 E3.63457
G1 X125.598 Y108.914 E3.65258
G1 X125.202 Y109.978 E3.67060
G1 X124.762 Y111.025 E3.68861
G1 X124.298 Y112.011 E3.70590
G1 X123.752 Y113.059 E3.72464
G1 X123.185 Y114.041 E3.74265
G1 X122.577 Y115.000 E3.76066
G1 X121.929 Y115.932 E3.77867
G1 X121.242 Y116.836 E3.79669
G1 X120.519 Y117.711 E3.81470
G1 X119.759 Y118.555 E3.83271
G1 X118.965 Y119.366 E3.85073
G1 X118.137 Y120.143 E3.86874
G1 X117.278 Y120.885 E3.88675
G1 X116.388 Y121.590 E3.90477
G1 X115.469 Y122.258 E3.92278
G1 X114.524 Y122.886 E3.94079
G1 X113.553 Y123.474 E3.95881
G1 X112.558 Y124.021 E3.97682
G1 X111.541 Y124.526 E3.99483
G1 X110.504 Y124.988 E4.01285
G1 X109.448 Y125.405 E4.03086
G1 X108.376 Y125.779 E4.04887
G1 X107.289 Y126.107 E4.06689
G1 X106.190 Y126.389 E4.08490
G1 X105.079 Y126.625 E4.10291
G1 X103.960 Y126.815 E4.12093
G1 X102.872 Y126.952 E4.13832
G1 X101.702 Y127.052 E4.15696
G1 X100.568 Y127.100 E4.17496
G1 X99.432 Y127.100 E4.19298
G1 X98.298 Y127.052 E4.21099
G1 X97.167 Y126.957 E4.22900
G1 X96.002 Y126.808 E4.24763
G1 X94.921 Y126.625 E4.26503
G1 X93.810 Y126.389 E4.28304
G1 X92.711 Y126.107 E4.30106
G1 X91.624 Y125.779 E4.31907
G1 X90.552 Y125.405 E4.33708
G1 X89.496 Y124.988 E4.35509
G1 X88.459 Y124.526 E4.37311
G1 X87.442 Y124.021 E4.39112
G1 X86.447 Y123.474 E4.40913
G1 X85.476 Y122.886 E4.42715
G1 X84.531 Y122.258 E4.44516
G1 X83.612 Y121.590 E4.46317
G1 X82.722 Y120.885 E4.48119
G1 X81.863 Y120.143 E4.49920
G1 X81.035 Y119.366 E4.51721
G1 X80.241 Y118.555 E4.53523
G1 X79.481 Y117.711 E4.55324
G1 X78.758 Y116.836 E4.57125
G1 X78.071 Y115.932 E4.58927
G1 X77.423 Y115.000 E4.60728
G1 X76.815 Y114.041 E4.62529
G1 X76.270 Y113.097 E4.64259
G1 X75.721 Y112.052 E4.66133
G1 X75.238 Y111.025 E4.67933
G1 X74.717 Y109.761 E4.70101
G1 X74.445 Y109.798 F7800.000
G1 F1080
G1 X74.149 Y109.002 E4.71449
G1 X73.795 Y107.912 E4.73268
G1 X73.487 Y106.807 E4.75087
G1 X73.225 Y105.691 E4.76906
G1 X73.010 Y104.565 E4.78726
G1 X72.842 Y103.431 E4.80545
G1 X72.723 Y102.291 E4.82364
G1 X72.651 Y101.146 E4.84183
G1 X72.627 Y100.000 E4.86002
G1 X72.651 Y98.854 E4.87821
G1 X72.723 Y97.709 E4.89640
G1 X72.842 Y96.569 E4.91459
G1 X73.010 Y95.435 E4.93278
G1 X73.225 Y94.309 E4.95098
G1 X73.487 Y93.193 E4.96917
G1 X73.795 Y92.088 E4.98736
G1 X74.149 Y90.998 E5.00555
G1 X74.549 Y89.923 E5.02374
G1 X74.993 Y88.866 E5.04193
G1 X75.481 Y87.829 E5.06012
G1 X76.013 Y86.813 E5.07831
G1 X76.586 Y85.820 E5.09651
G1 X77.200 Y84.852 E5.11470
G1 X77.854 Y83.910 E5.13289
G1 X78.548 Y82.997 E5.15108
G1 X79.278 Y82.114 E5.16927
G1 X80.046 Y81.262 E5.18746
G1 X80.848 Y80.442 E5.20565
G1 X81.684 Y79.658 E5.22384
G1 X82.552 Y78.908 E5.24203
G1 X83.450 Y78.196 E5.26023
G1 X84.377 Y77.523 E5.27841
G1 X85.372 Y76.864 E5.29733
G1 X86.313 Y76.294 E5.31480
G1 X87.318 Y75.742 E5.33299
G1 X88.345 Y75.232 E5.35118
G1 X89.392 Y74.765 E5.36937
G1 X90.458 Y74.343 E5.38756
G1 X91.541 Y73.966 E5.40575
G1 X92.639 Y73.635 E5.42395
G1 X93.749 Y73.350 E5.44214
G1 X94.871 Y73.112 E5.46033
G1 X96.001 Y72.920 E5.47852
G1 X97.139 Y72.777 E5.49671
G1 X98.281 Y72.681 E5.51490
G1 X99.427 Y72.633 E5.53309
G1 X100.573 Y72.633 E5.55128
G1 X101.673 Y72.679 E5.56875
G1 X102.862 Y72.777 E5.58767
G1 X103.999 Y72.920 E5.60586
G1 X105.129 Y73.112 E5.62405
G1 X106.251 Y73.350 E5.64224
G1 X107.361 Y73.635 E5.66043
G1 X108.459 Y73.966 E5.67862
G1 X109.542 Y74.343 E5.69681
G1 X110.608 Y74.765 E5.71500
G1 X111.655 Y75.232 E5.73319
G1 X112.682 Y75.742 E5.75138
G1 X113.687 Y76.294 E5.76958
G1 X114.667 Y76.888 E5.78777
G1 X115.622 Y77.522 E5.80596
G1 X116.550 Y78.196 E5.82415
G1 X117.448 Y78.908 E5.84234
G1 X118.316 Y79.658 E5.86053
G1 X119.152 Y80.442 E5.87872
G1 X119.954 Y81.262 E5.89691
G1 X120.722 Y82.114 E5.91511
G1 X121.452 Y82.997 E5.93330
G1 X122.146 Y83.910 E5.95149
G1 X122.800 Y84.852 E5.96968
G1 X123.414 Y85.820 E5.98787
G1 X123.987 Y86.813 E6.00606
G1 X124.538 Y87.870 E6.02498
G1 X125.007 Y88.866 E6.04244
G1 X125.451 Y89.923 E6.06063
G1 X125.851 Y90.998 E6.07883
G1 X126.205 Y92.088 E6.09702
G1 X126.513 Y93.193 E6.11521
G1 X126.775 Y94.309 E6.13340
G1 X126.990 Y95.435 E6.15159
G1 X127.158 Y96.569 E6.16978
G1 X127.277 Y97.709 E6.18797
G1 X127.347 Y98.808 E6.20544
G1 X127.373 Y100.000 E6.22436
G1 X127.349 Y101.146 E6.24255
G1 X127.277 Y102.291 E6.26074
G1 X127.158 Y103.431 E6.27893
G1 X126.990 Y104.565 E6.29712
G1 X126.775 Y105.691 E6.31531
G1 X126.513 Y106.807 E6.33350
G1 X126.205 Y107.912 E6.35169
G1 X125.851 Y109.002 E6.36988
G1 X125.451 Y110.077 E6.38807
G1 X125.007 Y111.134 E6.40627
G1 X124.538 Y112.130 E6.42373
G1 X123.987 Y113.187 E6.44265
G1 X123.414 Y114.180 E6.46084
G1 X122.800 Y115.148 E6.47903
G1 X122.146 Y116.090 E6.49722
G1 X121.452 Y117.003 E6.51541
G1 X120.722 Y117.886 E6.53360
G1 X119.954 Y118.738 E6.55179
G1 X119.152 Y119.558 E6.56999
G1 X118.316 Y120.342 E6.58818
G1 X117.448 Y121.092 E6.60637
G1 X116.550 Y121.804 E6.62456
G1 X115.622 Y122.478 E6.64275
G1 X114.667 Y123.112 E6.66094
G1 X113.687 Y123.706 E6.67913
G1 X112.682 Y124.258 E6.69732
G1 X111.655 Y124.768 E6.71551
G1 X110.608 Y125.235 E6.73371
G1 X109.542 Y125.657 E6.75190
G1 X108.459 Y126.034 E6.77009
G1 X107.361 Y126.365 E6.78828
G1 X106.251 Y126.650 E6.80647
G1 X105.129 Y126.888 E6.82466
G1 X103.999 Y127.080 E6.84285
G1 X102.900 Y127.219 E6.86042
G1 X101.719 Y127.319 E6.87924
G1 X100.573 Y127.367 E6.89743
G1 X99.427 Y127.367 E6.91562
G1 X98.281 Y127.319 E6.93381
G1 X97.139 Y127.223 E6.95199
G1 X95.963 Y127.073 E6.97081
G1 X94.871 Y126.888 E6.98838
G1 X93.749 Y126.650 E7.00657
G1 X92.639 Y126.365 E7.02476
G1 X91.541 Y126.034 E7.04295
G1 X90.458 Y125.657 E7.06115
G1 X89.392 Y125.235 E7.07934
G1 X88.345 Y124.768 E7.09753
G1 X87.318 Y124.258 E7.11572
G1 X86.313 Y123.706 E7.13391
G1 X85.333 Y123.112 E7.15210
G1 X84.378 Y122.478 E7.17029
G1 X83.450 Y121.804 E7.18848
G1 X82.552 Y121.092 E7.20667
G1 X81.684 Y120.342 E7.22487
G1 X80.848 Y119.558 E7.24306
G1 X80.046 Y118.738 E7.26125
G1 X79.278 Y117.886 E7.27944
G1 X78.548 Y117.003 E7.29763
G1 X77.854 Y116.090 E7.31582
G1 X77.200 Y115.148 E7.33401
G1 X76.586 Y114.180 E7.35220
G1 X76.035 Y113.227 E7.36967
G1 X75.481 Y112.171 E7.38859
G1 X74.993 Y111.134 E7.40678
G1 X74.466 Y109.855 E7.42872
G1 X74.194 Y109.892 F7800.000
G1 F1080
G1 X73.896 Y109.090 E7.44229
G1 X73.538 Y107.989 E7.46066
G1 X73.227 Y106.874 E7.47903
G1 X72.963 Y105.747 E7.49740
G1 X72.746 Y104.610 E7.51577
G1 X72.577 Y103.464 E7.53414
G1 X72.456 Y102.313 E7.55251
G1 X72.383 Y101.157 E7.57088
G1 X72.359 Y100.000 E7.58925
G1 X72.383 Y98.843 E7.60762
G1 X72.456 Y97.687 E7.62599
G1 X72.577 Y96.536 E7.64435
G1 X72.746 Y95.390 E7.66272
G1 X72.963 Y94.253 E7.68109
G1 X73.227 Y93.126 E7.69946
G1 X73.538 Y92.011 E7.71783
G1 X73.896 Y90.910 E7.73620
G1 X74.300 Y89.825 E7.75457
G1 X74.748 Y88.757 E7.77294
G1 X75.241 Y87.710 E7.79131
G1 X75.778 Y86.684 E7.80968
G1 X76.357 Y85.681 E7.82805
G1 X76.977 Y84.704 E7.84641
G1 X77.638 Y83.753 E7.86478
G1 X78.338 Y82.831 E7.88315
G1 X79.076 Y81.939 E7.90152
G1 X79.850 Y81.078 E7.91989
G1 X80.660 Y80.251 E7.93826
G1 X81.504 Y79.459 E7.95663
G1 X82.381 Y78.702 E7.97500
